tests/data/files/apphelpers/category_test_config.ocio
ocio_profile_version: 2

environment:
  {}

search_path: luts
strictparsing: true
family_separator: /
luma: [0.2126, 0.7152, 0.0722]

roles:
  reference: lin_1
  scene_linear: lin_1
  rendering: lin_1
  default: raw

view_transforms:
  - !<ViewTransform>
    name: view_transform
    from_scene_reference: !<MatrixTransform> {}

displays:
  DISP_1:
    - !<View> {name: VIEW_1, colorspace: view_1}
    - !<View> {name: VIEW_2, colorspace: view_2}
    - !<View> {name: VIEW_3, colorspace: view_3}
  DISP_2:
    - !<View> {name: VIEW_4, colorspace: view_3, looks: look_4}
    - !<View> {name: VIEW_3, colorspace: view_3, looks: look_3}
    - !<View> {name: VIEW_2, colorspace: view_2, looks: "look_3, -look_4"}
    - !<View> {name: VIEW_1, colorspace: view_1}

active_displays: []
active_views: []
inactive_colorspaces: [view_2, view_3]

looks:
  - !<Look>
    name: look_3
    process_space: log_1
    transform: !<CDLTransform> {slope: [1, 2, 1]}

  - !<Look>
    name: look_4
    process_space: log_1
    transform: !<CDLTransform> {slope: [1.2, 2.2, 1.2]}

  - !<Look>
    name: look_noop
    process_space: log_1
    transform: !<CDLTransform> {slope: [1, 1, 1], offset: [0, 0, 0], power: [1, 1, 1]}

colorspaces:
  - !<ColorSpace>
    name: raw
    family: Raw
    description: A raw color space. Conversions to and from this space are no-ops.
    isdata: true
    allocation: uniform

  - !<ColorSpace>
    name: lin_1
    categories: [ working-space, basic-2d ]
    encoding: scene-linear

  - !<ColorSpace>
    name: lin_2
    categories: [ working-space ]
    encoding: scene-linear

  - !<ColorSpace>
    name: log_1
    categories: [ working-space ]
    encoding: log
    to_reference: !<LogTransform> {base: 2, direction: inverse}

  - !<ColorSpace>
    name: in_1
    family: Input / Camera/Acme
    description: |
      An input color space.
      For the Acme camera.
    categories: [ file-io, basic-2d ]
    to_reference: !<ExponentTransform> {value: [2.6, 2.6, 2.6, 1]}
    encoding: sdr-video

  - !<ColorSpace>
    name: in_2
    categories: [ file-io, advanced-2d ]
    to_reference: !<ExponentTransform> {value: [2.4, 2.4, 2.4, 1]}
    encoding: sdr-video

  - !<ColorSpace>
    name: in_3
    categories: [ file-io, working-space, advanced-3d ]
    encoding: scene-linear
    to_reference: !<ExponentTransform> {value: [2.2, 2.2, 2.2, 1]}

  - !<ColorSpace>
    name: view_1
    description: Note that this has no categories.
    encoding: sdr-video
    from_reference: !<ExponentTransform> {value: [2.6, 2.6, 2.6, 1], direction: inverse}

  - !<ColorSpace>
    name: view_2
    description: This color space is in the inactive list.
    encoding: sdr-video
    from_reference: !<ExponentTransform> {value: [2.4, 2.4, 2.4, 1], direction: inverse}

  - !<ColorSpace>
    name: view_3
    description: This color space is in the inactive list.
    from_reference: !<ExponentTransform> {value: [2.2, 2.2, 2.2, 1], direction: inverse}

  - !<ColorSpace>
    name: lut_input_1
    categories: [ look-process-space, LUT-connection-space ]
    from_reference: !<ExponentTransform> {value: [2.6, 2.6, 2.6, 1], direction: inverse}

  - !<ColorSpace>
    name: lut_input_2
    categories: [ look-process-space, advanced-2d ]
    from_reference: !<ExponentTransform> {value: [2.4, 2.4, 2.4, 1], direction: inverse}

  - !<ColorSpace>
    name: lut_input_3
    categories: [ file-io, look-process-space, advanced-2d ]
    from_reference: !<ExponentTransform> {value: [2.4, 2.4, 2.4, 1], direction: inverse}

display_colorspaces:
  - !<ColorSpace>
    name: display_lin_1
    categories: [ working-space, basic-2d ]
    encoding: scene-linear

  - !<ColorSpace>
    name: display_lin_2
    categories: [ working-space ]
    encoding: sdr-video

  - !<ColorSpace>
    name: display_log_1
    categories: [ working-space, advanced-2d ]
    encoding: log
    to_display_reference: !<LogTransform> {base: 2, direction: inverse}

named_transforms:
  - !<NamedTransform>
    name: nt1
    categories: [ working-space, basic-3d, advanced-2d ]
    encoding: sdr-video
    transform: !<MatrixTransform> {name: forward, offset: [0.1, 0.2, 0.3, 0.4]}

  - !<NamedTransform>
    name: nt2
    description: Note that this has no categories.
    encoding: log
    inverse_transform: !<MatrixTransform> {name: inverse, offset: [-0.2, -0.1, -0.1, 0]}

  - !<NamedTransform>
    name: nt3
    categories: [ file-io, basic-2d ]
    encoding: sdr-video
    family: NamedTransforms 
    transform: !<MatrixTransform> {name: forward, offset: [0.1, 0.2, 0.3, 0.4]}
    inverse_transform: !<MatrixTransform> {name: inverse, offset: [-0.2, -0.1, -0.1, 0]}
